icons/podcastrepublic.svg

<svg width="32" height="32" viewBox="0 0 32 32" fill="none" xmlns="http://www.w3.org/2000/svg">
<g clip-path="url(#clip0_29_422)">
<path d="M3.36667 28.6333C0.913333 26.18 0 22.18 0 16C0 9.82 0.913333 5.82 3.36667 3.36667C5.82 0.913333 9.82 0 16 0C22.18 0 26.18 0.913333 28.6333 3.36667C31.0867 5.82 32 9.82 32 16C32 22.18 31.0867 26.18 28.6333 28.6333C26.18 31.0867 22.18 32 16 32C9.82 32 5.82 31.0867 3.36667 28.6333Z" fill="#5C85DD"/>
<path d="M28.0733 16.1067C28.0733 16.8667 28.0067 17.6467 27.88 18.4467C27.7133 19.2067 27.4733 19.9467 27.1467 20.6667C26.86 21.3867 26.5 22.0667 26.0533 22.7067C25.6067 23.3467 25.1067 23.9667 24.54 24.56L22.8067 22.8667C23.2933 22.3867 23.6933 21.8867 24.02 21.3733C24.3867 20.8533 24.6867 20.3133 24.9333 19.7533C25.18 19.1533 25.36 18.5533 25.4867 17.9533C25.6133 17.3133 25.6733 16.6933 25.68 16.0933C25.68 15.4133 25.6467 14.7733 25.5733 14.1667C25.46 13.5267 25.28 12.92 25.04 12.36C24.8 11.76 24.5067 11.1933 24.1467 10.6733C23.7867 10.1533 23.3733 9.68665 22.8933 9.28665L24.6467 7.55332C25.2067 8.11999 25.7 8.71999 26.14 9.36665C26.58 10.0533 26.9333 10.7533 27.2067 11.48C27.52 12.2 27.76 12.9467 27.9133 13.7067C28.0267 14.5067 28.0867 15.3133 28.08 16.1133M22.7267 6.04665L21.0333 7.77999C20.6733 7.53999 20.2933 7.33332 19.8933 7.17332L18.6933 6.74665C18.2933 6.62665 17.8733 6.53999 17.4333 6.49999L16.1133 6.43332C14.7933 6.42665 13.5467 6.65999 12.38 7.13332C11.2133 7.60665 10.1867 8.27999 9.3 9.15999C8.45333 10.04 7.76666 11.0533 7.24 12.2133C6.71333 13.3733 6.44666 14.6333 6.44 15.9933C6.43333 17.3533 6.68666 18.56 7.2 19.7267C7.71333 20.8933 8.38666 21.92 9.22666 22.8067C10.1067 23.6533 11.12 24.34 12.28 24.8667C13.44 25.3933 14.68 25.66 16 25.6667L17.32 25.5533C17.76 25.5133 18.18 25.44 18.5867 25.32L19.7933 24.8467L20.94 24.3133L22.6133 26.0667C22.1333 26.3867 21.6267 26.66 21.1067 26.9L19.48 27.5533C18.96 27.7133 18.3933 27.8267 17.7933 27.9067C17.1933 28.0267 16.5933 28.08 15.9867 28.0733C14.3467 28.0667 12.8 27.7333 11.3667 27.0867C9.88666 26.44 8.61333 25.5667 7.53333 24.48C6.45333 23.3933 5.60666 22.1067 4.97333 20.62C4.34 19.1733 4.02666 17.6267 4.04 15.9867C4.05333 14.3467 4.38 12.72 5.02666 11.2467C5.67333 9.80665 6.54666 8.55332 7.63333 7.47332C8.72 6.39999 10.0067 5.54665 11.4933 4.91332C12.94 4.31999 14.4867 4.02665 16.1267 4.03999L17.9267 4.17332C18.5267 4.25999 19.0867 4.37999 19.6067 4.54665C20.1667 4.71332 20.7067 4.91332 21.2267 5.15999C21.7467 5.40665 22.2467 5.70665 22.7267 6.07332M21.2467 16.88L14.4733 20.7867C14.2733 20.9067 14.06 20.94 13.8267 20.9067C13.5933 20.8667 13.4 20.76 13.2533 20.5867C13.1067 20.4067 13.0267 20.2 13.0267 19.96V12.12C13.0333 11.8933 13.1133 11.6867 13.26 11.5067C13.4067 11.3333 13.6 11.22 13.8267 11.1733C14.06 11.1333 14.28 11.1733 14.48 11.2933L21.2533 15.2133C21.4467 15.3333 21.5867 15.4933 21.66 15.7133C21.7467 15.9333 21.7467 16.1533 21.66 16.3733C21.58 16.5933 21.44 16.76 21.24 16.88" fill="white"/>
</g>
<defs>
<clipPath id="clip0_29_422">
<rect width="32" height="32" fill="white"/>
</clipPath>
</defs>
</svg>

<svg xmlns="http://www.w3.org/2000/svg" width="32" height="32" fill="none" viewBox="0 0 32 32">
  <g clip-path="url(#a)">
    <path fill="#5C85DD" d="M3.367 28.633C.913 26.18 0 22.18 0 16 0 9.82.913 5.82 3.367 3.367 5.82.913 9.82 0 16 0c6.18 0 10.18.913 12.633 3.367C31.087 5.82 32 9.82 32 16c0 6.18-.913 10.18-3.367 12.633C26.18 31.087 22.18 32 16 32c-6.18 0-10.18-.913-12.633-3.367Z"/>
    <path fill="#fff" d="M28.073 16.107c0 .76-.066 1.54-.193 2.34-.167.76-.407 1.5-.733 2.22-.287.72-.647 1.4-1.094 2.04a15.61 15.61 0 0 1-1.513 1.853l-1.733-1.693c.486-.48.886-.98 1.213-1.494a9.24 9.24 0 0 0 .913-1.62c.247-.6.427-1.2.554-1.8.126-.64.186-1.26.193-1.86 0-.68-.033-1.32-.107-1.926a8.23 8.23 0 0 0-.533-1.807 8.49 8.49 0 0 0-.893-1.687 6.902 6.902 0 0 0-1.254-1.386l1.754-1.734c.56.567 1.053 1.167 1.493 1.814.44.686.793 1.386 1.067 2.113.313.72.553 1.467.706 2.227.114.8.174 1.606.167 2.406M22.727 6.047 21.033 7.78c-.36-.24-.74-.447-1.14-.607l-1.2-.426a6.39 6.39 0 0 0-1.26-.247l-1.32-.067a9.71 9.71 0 0 0-3.733.7A9.272 9.272 0 0 0 9.3 9.16a10.797 10.797 0 0 0-2.06 3.053c-.527 1.16-.793 2.42-.8 3.78a8.932 8.932 0 0 0 .76 3.734 10.697 10.697 0 0 0 2.027 3.08c.88.846 1.893 1.533 3.053 2.06a9.02 9.02 0 0 0 3.72.8l1.32-.114c.44-.04.86-.113 1.267-.233l1.206-.473 1.147-.534 1.673 1.754c-.48.32-.986.593-1.506.833l-1.627.653c-.52.16-1.087.274-1.687.354-.6.12-1.2.173-1.806.166a11.244 11.244 0 0 1-4.62-.986 12.275 12.275 0 0 1-3.834-2.607c-1.08-1.087-1.926-2.373-2.56-3.86a11.204 11.204 0 0 1-.933-4.633c.013-1.64.34-3.267.987-4.74a12.478 12.478 0 0 1 2.606-3.774c1.087-1.073 2.374-1.926 3.86-2.56a11.842 11.842 0 0 1 4.634-.873l1.8.133c.6.087 1.16.207 1.68.374.56.166 1.1.366 1.62.613a8.36 8.36 0 0 1 1.5.913m-1.48 10.807-6.774 3.907a.949.949 0 0 1-.646.12.936.936 0 0 1-.574-.32.965.965 0 0 1-.226-.627v-7.84a.99.99 0 0 1 .8-.947.93.93 0 0 1 .653.12l6.773 3.92c.194.12.334.28.407.5a.87.87 0 0 1 0 .66.954.954 0 0 1-.42.507"/>
  </g>
  <defs>
    <clipPath id="a">
      <path fill="#fff" d="M0 0h32v32H0z"/>
    </clipPath>
  </defs>
</svg>
